X:1
T:Title
%%score { 1 | 2 }
L:1/8
Q:1/4=100
M:4/4
K:F
V:1 treble nm="Grand Piano"
V:2 bass 
V:1
 A2 c2 c2 d>c | A2 c2 c4 | FGA[FB] [Fc]2 [FA]2 | [EG]4 [Ec]2 z2 | A2 c2 c2 d>c | A2 c2 c4 | %6
w: W.~H.~Doane * * * *||||||
 FGA[FB] [Fc]2 [FA]2 | [EG]4 F2 z2 | [Fd]2 [Fd]2 [FB]2 [Fd]2 | [Fc]4 [FA]2 z2 | %10
w: ||||
 [GB]2 [GB]2 [EG]2 [Ec]2 | [GB]4 A2 A>B | c>d c>B A4 | [EG]>[FA] [GB]>[Ac] [GB]>[FA] [EG]2 | %14
w: ||||
 FGA[FB] [Fc]2 [FA]2 | [EG]4 F2 z2 |] %16
w: ||
V:2
 [F,CF]2 [F,A,F]2 [F,A,F]2 [F,B,F]>[F,A,F] | [F,CF]2 [F,A,F]2 [F,A,F]4 | %2
 [A,C][G,CE][F,CF][D,B,] [C,A,]2 [C,C]2 | [C,C]4 [C,G,]2 z2 | %4
 [F,CF]2 [F,A,F]2 [F,A,F]2 [F,B,F]>[F,A,F] | [F,CF]2 [F,A,F]2 [F,A,F]4 | %6
 [A,C][G,CE][F,CF][D,B,] [C,A,]2 [C,C]2 | [C,B,]4 [F,A,]2 z2 | [B,,B,]2 [B,,B,]2 [D,B,]2 [B,,B,]2 | %9
 [F,A,]4 [F,C]2 z2 | [C,C]2 [C,C]2 [C,C]2 [C,C]2 | [F,C]4 [F,CF]2 [F,F]>[F,G,F] | %12
 [F,A,F]>[F,B,F] [F,A,F]>[F,DF] [F,CF]4 | [C,C]>[C,C] [C,C]>[C,C] [C,C]>[C,C] [C,C]2 | %14
 [A,C][G,CE][F,CF][D,B,] [C,A,]2 [C,C]2 | [C,B,]4 [F,A,]2 z2 |] %16

